X:1252
T:Polska efter J.O. Löfven
S:efter JO Löfven
O:Vallentuna, Uppland
B:Melodier från Upplands bruk och Fyris bygder häfte 2, nr. 13
N:I nothäftet står "Polska, spelad av J.O. Löfven, Vallentuna"
N:Låten uppvisar vissa likheter med [[Musik/346|+]]
B:Jämför [[http://www.smus.se/earkiv/fmk/browselarge.php?lang=sw&katalogid=M+177&bildnr=00039|SMUS - katalog M177 bild 39]] av [[Personer/Eduard du Puy]] ur [[Notböcker/E L Lindblads notbok]].
B:Jämför [[Notböcker/John Johanssons noter]] [[http://www.sormlandsmusikarkiv.se/noter/johansson_john/john_johansson.html|samling 2]] sida 70 polonäs nr 96
B:Jämför [[http://www.smus.se/earkiv/fmk/browselarge.php?lang=sw&katalogid=M+132&bildnr=00011|SMUS - katalog M132 bild 11]] nr 33 ur [[Notböcker/Anders PlanMarcks notbok]]
N:Se även [[Musik/392|+]] som formmässigt påminner litet om denna.
R:Polska
Z:Nils L
M:3/4
L:1/16
K:D
A2AF D2DF A2Ad | B2BG D2DG B2Bd | (cd)ef g2f2 e2d2 |1 (dc)df (ed)cB A4 :|2 (cd)ec d4 D4 |]
|: A2>a2 a4>f4 | g2gf e2ed c2cB | A2>a2 a4>f4 | g2gf e2ed c2cB | 
    A2AF D2DF A2Ad | B2BG D2DG B2Bd |1 (cd)ef g2f2 e2d2 :|2 cdec d4 D4 :|
(:musicend:)

En närmast identisk version följer här. Eftersom de båda verkar vara avskrifter från samma källa(?) kan man undra hur det är med reprishusen i B-delen: ska de vara där eller inte? Den som har häftet kan gärna fixa till detta, och ta bort den ena versionen.

(:music:)
